images/right-men.svg

<svg width="123" height="234" viewBox="0 0 123 234" fill="none" xmlns="http://www.w3.org/2000/svg">
<path d="M67.309 90.6374C77.342 85.7376 96.9024 103.47 106.41 120.464C110.202 127.231 114.655 135.183 113.566 144.633C111.621 161.393 93.0526 176.073 67.4645 180.993C66.7451 178.426 66.0257 175.84 65.3063 173.274C68.1062 170.357 72.2866 166.157 77.6336 161.335C85.8389 153.927 87.5305 153.441 87.9194 151.108C89.2027 143.447 69.5256 137.05 62.5258 123.595C56.4982 112.006 59.6092 94.3901 67.309 90.6374Z" fill="url(#paint0_linear_39_3384)"/>
<path d="M80.4727 225.286C80.4727 225.286 78.8199 229.349 79.6366 230.944C80.4532 232.538 84.4003 231.527 89.9807 232.383C95.5416 233.238 99.3915 234.541 99.7026 233.374C100.014 232.227 88.4641 226.122 87.5502 225.286C86.6363 224.45 80.4727 225.286 80.4727 225.286Z" fill="url(#paint1_linear_39_3384)"/>
<path d="M81.9504 219.219L85.8391 225.286C85.8391 225.286 84.0503 227.055 80.9976 226.394L76.72 220.639L81.9504 219.219Z" fill="url(#paint2_linear_39_3384)"/>
<path opacity="0.3" d="M62.526 123.575C56.4985 112.006 59.6095 94.39 67.3092 90.6179C69.3313 89.6263 71.7424 89.568 74.3673 90.2291C72.9868 94.2345 73.259 97.1316 73.9395 99.1732C76.9922 108.312 90.1945 107.281 94.3166 117.684C96.9221 124.256 92.7806 127.522 96.4749 132.811C100.305 138.275 106.566 137.361 108.511 142.688C109.949 146.655 107.111 148.91 108.199 152.255C108.511 153.188 109.113 154.121 110.105 155.016C103.319 167.207 87.5502 177.104 67.4453 180.973C66.7259 178.407 66.0065 175.821 65.287 173.254C68.0869 170.338 72.2674 166.138 77.6144 161.316C85.8197 153.908 87.5113 153.421 87.9002 151.088C89.2029 143.447 69.5258 137.05 62.526 123.575Z" fill="url(#paint3_linear_39_3384)"/>
<path d="M74.1532 94.2538C73.7254 111.792 73.9587 130.75 75.242 150.933C76.8559 176.715 79.9085 200.378 83.6223 221.65C81.9696 222.175 80.3169 222.7 78.6641 223.225C61.6897 206.697 56.6149 192.153 55.2344 181.693C54.2427 174.304 55.7399 173.662 54.4177 164.407C51.89 146.791 45.2986 140.744 40.671 124.256C38.9405 118.073 36.9961 108.701 37.1322 96.5093C49.4596 95.7705 61.8064 95.0122 74.1532 94.2538Z" fill="url(#paint4_linear_39_3384)"/>
<path d="M86.3056 62.8521C85.9945 62.9299 84.6528 63.3771 84.1278 68.9575C82.8446 82.4321 89.8638 87.8763 88.1333 95.1872C86.4805 102.206 78.0225 105.609 69.3117 109.109C63.498 111.442 45.5125 118.695 35.0517 110.548C30.6574 107.126 30.1713 102.984 27.0214 87.7791C19.0495 49.1443 15.9579 45.8388 19.3022 37.478C25.0576 23.109 40.496 17.1787 43.0626 16.187C70.4394 5.62904 102.774 25.0339 115.549 47.2971C117.241 50.2331 127.274 67.752 120.216 76.0545C115.938 81.0904 106.138 81.8876 99.6634 78.4655C91.0304 73.8768 89.1832 62.191 86.3056 62.8521Z" fill="url(#paint5_linear_39_3384)"/>
<path d="M116.23 73.0602C116.307 73.0602 116.405 73.0408 116.482 73.0019C116.794 72.8658 116.93 72.4964 116.794 72.1853C116.56 71.6797 110.902 59.5468 97.8553 54.7636C97.5442 54.647 97.1747 54.8025 97.0581 55.1331C96.9414 55.4442 97.097 55.8136 97.4275 55.9303C109.988 60.5385 115.627 72.5936 115.666 72.7103C115.763 72.9436 115.996 73.0602 116.23 73.0602Z" fill="url(#paint6_linear_39_3384)"/>
<path opacity="0.3" d="M37.2099 32.5392C38.9404 37.2446 33.7489 41.3278 35.985 46.4221C39.1737 53.733 51.8316 49.9803 56.3621 57.2329C61.7285 65.8076 49.4401 79.8849 54.5149 84.7069C56.8287 86.9041 59.4925 84.0848 66.2395 85.6403C75.8447 87.8374 78.7419 95.4399 83.2139 94.2733C84.6139 93.9038 86.3249 92.64 87.7638 88.7123C88.386 90.89 88.6776 92.9706 88.1527 95.2066C86.4999 102.226 78.0419 105.628 69.3311 109.128C63.5174 111.462 45.5318 118.714 35.0711 110.567C30.6768 107.145 30.1907 103.004 27.0408 87.7985C19.0689 49.1637 15.9773 45.8582 19.3216 37.4974C21.1493 32.9476 23.9492 29.2338 27.0214 26.2589C33.5934 27.6977 36.3155 30.0699 37.2099 32.5392Z" fill="url(#paint7_linear_39_3384)"/>
<path d="M53.7567 62.0549C53.0179 62.7354 45.532 69.3269 36.5101 67.0714C28.6548 65.1076 23.8522 57.4856 22.9967 51.0692C20.9939 35.8058 40.885 22.9923 38.435 19.9008C36.9767 18.0536 29.1409 21.6312 23.93 24.8395C18.5246 28.1838 3.88342 37.1863 0.772415 54.8801C0.500202 56.3773 -2.94137 77.4738 9.11378 86.1846C20.2551 94.2344 42.0516 89.8595 56.8289 70.8046C55.8178 67.8881 54.7873 64.9715 53.7567 62.0549Z" fill="url(#paint8_linear_39_3384)"/>
<path d="M102.055 48.0944L93.1303 76.5795C92.8387 77.5128 91.9831 78.1545 91.011 78.1934L43.0237 79.885C41.5265 79.9433 40.3599 78.5628 40.6904 77.0851L46.893 48.5027C47.1263 47.4722 48.0207 46.7139 49.0707 46.6944L99.7801 45.1195C101.374 45.0611 102.541 46.5972 102.055 48.0944Z" fill="#D8DEE8"/>
<path d="M101.627 49.0471L92.9747 76.6962C92.6831 77.61 91.8664 78.2322 90.9137 78.2711L44.3264 79.9238C42.8681 79.9821 41.7403 78.6405 42.0514 77.2017L48.079 49.4359C48.2929 48.4248 49.1679 47.7055 50.1984 47.6666L99.4106 46.1305C100.966 46.0916 102.094 47.5693 101.627 49.0471Z" fill="url(#paint9_linear_39_3384)"/>
<path d="M42.0709 77.1823L47.8263 50.6804C48.7984 52.9942 50.0623 54.1608 51.2678 54.7442C54.7288 56.4552 57.4315 53.3637 64.9951 53.6553C67.8923 53.772 73.8032 54.0053 77.4975 57.8163C80.9585 61.4134 79.4808 65.1077 81.6585 70.1631C82.7473 72.7102 84.7889 75.6073 88.7166 78.31L44.3458 79.885C42.8875 79.9628 41.7598 78.6212 42.0709 77.1823Z" fill="url(#paint10_linear_39_3384)"/>
<path d="M71.2951 13.4261C70.7895 15.2149 71.859 17.0815 73.6672 17.5093C75.8644 18.0342 78.5282 18.7731 79.6754 19.4342C81.7947 20.6397 73.22 19.2397 65.3453 19.0648C60.426 18.9481 56.7511 18.4037 54.6901 17.9953C54.1262 17.8787 54.0873 17.1204 54.6318 16.9454C56.5956 16.3038 59.8038 15.3704 62.5065 15.0204C65.8508 14.5927 69.4479 7.20404 69.4479 7.20404L72.3256 9.80951L71.2951 13.4261Z" fill="url(#paint11_linear_39_3384)"/>
<path d="M99.8191 57.1745L99.2747 56.2801C98.7886 54.433 97.0192 53.2274 95.1137 53.4608L92.2555 53.8107C91.3611 53.9274 90.7583 54.7635 90.9333 55.6579C91.2055 56.9412 91.8861 58.4578 93.636 58.3411C96.6303 58.1467 98.5358 62.5021 98.5358 62.5021L99.683 60.8883C100.461 59.7994 100.519 58.3411 99.8191 57.1745Z" fill="url(#paint12_linear_39_3384)"/>
<path d="M77.6921 9.65398C80.1615 9.28455 82.942 7.20406 82.8836 5.49301C82.8058 3.12086 77.4005 1.83756 74.6783 1.17647C71.9368 0.515382 70.7896 0.748712 69.9924 1.35147C69.1952 1.95423 68.6702 3.04308 68.4952 3.99582C68.398 4.50136 68.398 5.22078 68.4758 6.62073C68.5535 7.86514 68.5341 7.8068 68.5536 8.17624C68.6313 9.07065 68.8646 10.6262 69.7396 12.765C70.0896 12.3761 70.5757 11.9095 71.1785 11.4428C71.4118 11.2678 72.3256 10.5678 73.3562 10.1595C75.1839 9.4401 76.195 9.86787 77.6921 9.65398Z" fill="url(#paint13_linear_39_3384)"/>
<path d="M68.4564 10.354C68.4564 10.354 68.6119 13.7955 71.859 15.3121C74.7756 16.6732 78.6255 10.5873 77.5755 8.27346C77.2255 7.49571 76.1172 6.65963 75.0089 6.40686C74.3478 6.25131 74.0173 6.38742 72.9479 6.11521C71.9562 5.86244 71.7618 5.62912 71.3729 5.70689C70.8868 5.80411 70.2841 6.34855 69.8174 8.48736C69.5841 7.65128 69.0397 7.0874 68.4758 7.04852C68.3786 7.04852 68.1258 7.06795 67.8925 7.20405C67.0953 7.72904 67.2508 9.01234 68.4564 10.354Z" fill="url(#paint14_linear_39_3384)"/>
<defs>
<linearGradient id="paint0_linear_39_3384" x1="113.732" y1="135.397" x2="59.356" y2="135.397" gradientUnits="userSpaceOnUse">
<stop stop-color="#4499D9"/>
<stop offset="0.9964" stop-color="#6E6CC1"/>
</linearGradient>
<linearGradient id="paint1_linear_39_3384" x1="99.7196" y1="229.374" x2="79.4239" y2="229.374" gradientUnits="userSpaceOnUse">
<stop stop-color="#311944"/>
<stop offset="1" stop-color="#6B3976"/>
</linearGradient>
<linearGradient id="paint2_linear_39_3384" x1="76.6274" y1="193.808" x2="83.7261" y2="238.252" gradientUnits="userSpaceOnUse">
<stop stop-color="#311944"/>
<stop offset="1" stop-color="#A03976"/>
</linearGradient>
<linearGradient id="paint3_linear_39_3384" x1="113.732" y1="135.401" x2="59.3564" y2="135.401" gradientUnits="userSpaceOnUse">
<stop stop-color="#AA80F9"/>
<stop offset="0.9964" stop-color="#6165D7"/>
</linearGradient>
<linearGradient id="paint4_linear_39_3384" x1="73.9998" y1="137" x2="50.9998" y2="189" gradientUnits="userSpaceOnUse">
<stop stop-color="#4499D9"/>
<stop offset="0.9964" stop-color="#6E6CC1"/>
</linearGradient>
<linearGradient id="paint5_linear_39_3384" x1="53.6235" y1="2.37053" x2="87.3678" y2="122.533" gradientUnits="userSpaceOnUse">
<stop stop-color="#FFC444"/>
<stop offset="0.9964" stop-color="#F36F56"/>
</linearGradient>
<linearGradient id="paint6_linear_39_3384" x1="107.757" y1="61.2053" x2="101.893" y2="80.2379" gradientUnits="userSpaceOnUse">
<stop stop-color="#FFC444"/>
<stop offset="0.9964" stop-color="#F36F56"/>
</linearGradient>
<linearGradient id="paint7_linear_39_3384" x1="34.3379" y1="7.78623" x2="68.0822" y2="127.949" gradientUnits="userSpaceOnUse">
<stop stop-color="#FFC444"/>
<stop offset="0.9964" stop-color="#F36F56"/>
</linearGradient>
<linearGradient id="paint8_linear_39_3384" x1="12.6855" y1="13.8668" x2="46.4297" y2="134.029" gradientUnits="userSpaceOnUse">
<stop stop-color="#FFC444"/>
<stop offset="0.9964" stop-color="#F36F56"/>
</linearGradient>
<linearGradient id="paint9_linear_39_3384" x1="77.6882" y1="50.1089" x2="57.3183" y2="86.8366" gradientUnits="userSpaceOnUse">
<stop offset="0.494" stop-color="#EBEFF2"/>
<stop offset="1" stop-color="white"/>
</linearGradient>
<linearGradient id="paint10_linear_39_3384" x1="45.309" y1="89.1698" x2="68.9711" y2="63.7588" gradientUnits="userSpaceOnUse">
<stop offset="0.494" stop-color="#EBEFF2"/>
<stop offset="1" stop-color="white"/>
</linearGradient>
<linearGradient id="paint11_linear_39_3384" x1="63.956" y1="-8.5651" x2="67.8654" y2="24.7677" gradientUnits="userSpaceOnUse">
<stop stop-color="#311944"/>
<stop offset="1" stop-color="#A03976"/>
</linearGradient>
<linearGradient id="paint12_linear_39_3384" x1="100.305" y1="57.9722" x2="90.8975" y2="57.9722" gradientUnits="userSpaceOnUse">
<stop stop-color="#311944"/>
<stop offset="1" stop-color="#A03976"/>
</linearGradient>
<linearGradient id="paint13_linear_39_3384" x1="59.4411" y1="18.2988" x2="78.5778" y2="2.23026" gradientUnits="userSpaceOnUse">
<stop stop-color="#AA80F9"/>
<stop offset="0.9964" stop-color="#6165D7"/>
</linearGradient>
<linearGradient id="paint14_linear_39_3384" x1="67.4902" y1="-4.05971" x2="71.1938" y2="5.19939" gradientUnits="userSpaceOnUse">
<stop stop-color="#311944"/>
<stop offset="1" stop-color="#A03976"/>
</linearGradient>
</defs>
</svg>

<svg width="123" height="234" fill="none" xmlns="http://www.w3.org/2000/svg"><path d="M67.309 90.637c10.033-4.9 29.593 12.833 39.101 29.827 3.792 6.767 8.245 14.719 7.156 24.169-1.945 16.76-20.513 31.44-46.102 36.36-.719-2.567-1.438-5.153-2.158-7.719a238.68 238.68 0 0112.328-11.939c8.205-7.408 9.897-7.894 10.285-10.227 1.284-7.661-18.393-14.058-25.393-27.513-6.028-11.589-2.917-29.205 4.783-32.958z" fill="url(#paint0_linear_39_3384)"/><path d="M80.473 225.286s-1.653 4.063-.836 5.658c.816 1.594 4.763.583 10.344 1.439 5.56.855 9.41 2.158 9.722.991.311-1.147-11.239-7.252-12.153-8.088-.914-.836-7.077 0-7.077 0z" fill="url(#paint1_linear_39_3384)"/><path d="M81.95 219.219l3.89 6.067s-1.79 1.769-4.842 1.108l-4.278-5.755 5.23-1.42z" fill="url(#paint2_linear_39_3384)"/><path opacity=".3" d="M62.526 123.575c-6.028-11.569-2.917-29.185 4.783-32.957 2.022-.992 4.433-1.05 7.058-.389-1.38 4.005-1.108 6.903-.428 8.944 3.053 9.139 16.256 8.108 20.378 18.511 2.605 6.572-1.536 9.838 2.158 15.127 3.83 5.464 10.091 4.55 12.036 9.877 1.438 3.967-1.4 6.222-.312 9.567.312.933.914 1.866 1.906 2.761-6.786 12.191-22.555 22.088-42.66 25.957-.72-2.566-1.438-5.152-2.158-7.719 2.8-2.916 6.98-7.116 12.327-11.938 8.206-7.408 9.897-7.895 10.286-10.228 1.303-7.641-18.374-14.038-25.374-27.513z" fill="url(#paint3_linear_39_3384)"/><path d="M74.153 94.254a644.832 644.832 0 001.089 56.679 645.364 645.364 0 008.38 70.717l-4.958 1.575c-16.974-16.528-22.05-31.072-23.43-41.532-.991-7.389.506-8.031-.816-17.286-2.528-17.616-9.12-23.663-13.747-40.151-1.73-6.183-3.675-15.555-3.539-27.747 12.328-.739 24.674-1.497 37.021-2.255z" fill="url(#paint4_linear_39_3384)"/><path d="M86.306 62.852c-.311.078-1.653.525-2.178 6.105-1.283 13.475 5.736 18.92 4.005 26.23-1.652 7.019-10.11 10.422-18.821 13.922-5.814 2.333-23.8 9.586-34.26 1.439-4.395-3.422-4.88-7.564-8.03-22.769-7.973-38.635-11.064-41.94-7.72-50.301 5.756-14.369 21.194-20.3 23.76-21.291 27.377-10.558 59.712 8.847 72.487 31.11 1.692 2.936 11.725 20.455 4.667 28.758-4.278 5.035-14.078 5.833-20.553 2.41-8.633-4.588-10.48-16.274-13.357-15.613z" fill="url(#paint5_linear_39_3384)"/><path d="M116.23 73.06c.077 0 .175-.02.252-.058a.62.62 0 00.312-.817c-.234-.505-5.892-12.638-18.939-17.421a.62.62 0 00-.797.37.62.62 0 00.37.796c12.56 4.608 18.199 16.664 18.238 16.78.097.234.33.35.564.35z" fill="url(#paint6_linear_39_3384)"/><path opacity=".3" d="M37.21 32.54c1.73 4.705-3.461 8.788-1.225 13.882 3.189 7.311 15.847 3.558 20.377 10.81 5.366 8.576-6.922 22.653-1.847 27.475 2.314 2.197 4.977-.622 11.725.933 9.605 2.197 12.502 9.8 16.974 8.633 1.4-.37 3.11-1.633 4.55-5.56.622 2.177.914 4.258.389 6.494-1.653 7.019-10.111 10.421-18.822 13.921-5.814 2.334-23.8 9.586-34.26 1.439-4.394-3.422-4.88-7.563-8.03-22.768-7.972-38.635-11.064-41.94-7.72-50.302 1.828-4.55 4.628-8.263 7.7-11.238 6.572 1.439 9.294 3.81 10.189 6.28z" fill="url(#paint7_linear_39_3384)"/><path d="M53.757 62.055c-.74.68-8.225 7.272-17.247 5.016-7.855-1.963-12.658-9.585-13.513-16.002-2.003-15.263 17.888-28.077 15.438-31.168-1.458-1.847-9.294 1.73-14.505 4.939C18.525 28.184 3.883 37.186.772 54.88.5 56.377-2.94 77.474 9.114 86.185c11.141 8.05 32.938 3.674 47.715-15.38a1560.807 1560.807 0 00-3.072-8.75z" fill="url(#paint8_linear_39_3384)"/><path d="M102.055 48.094L93.13 76.58a2.315 2.315 0 01-2.119 1.614l-47.987 1.692a2.302 2.302 0 01-2.334-2.8l6.203-28.582c.233-1.03 1.128-1.79 2.178-1.809l50.71-1.575c1.593-.058 2.76 1.478 2.274 2.975z" fill="#D8DEE8"/><path d="M101.627 49.047l-8.652 27.65a2.25 2.25 0 01-2.061 1.574l-46.588 1.653c-1.458.058-2.586-1.284-2.275-2.722l6.028-27.766a2.24 2.24 0 012.12-1.77l49.212-1.535c1.555-.04 2.683 1.438 2.216 2.916z" fill="url(#paint9_linear_39_3384)"/><path d="M42.07 77.182l5.756-26.502c.972 2.314 2.236 3.48 3.442 4.064 3.46 1.711 6.163-1.38 13.727-1.089 2.897.117 8.808.35 12.502 4.161 3.462 3.597 1.984 7.292 4.162 12.347 1.088 2.547 3.13 5.444 7.058 8.147l-44.371 1.575c-1.458.078-2.586-1.264-2.275-2.703z" fill="url(#paint10_linear_39_3384)"/><path d="M71.295 13.426c-.505 1.789.564 3.655 2.372 4.083 2.197.525 4.861 1.264 6.008 1.925 2.12 1.206-6.455-.194-14.33-.37-4.919-.116-8.594-.66-10.655-1.069a.54.54 0 01-.058-1.05c1.964-.641 5.172-1.575 7.875-1.925 3.344-.427 6.94-7.816 6.94-7.816l2.879 2.606-1.03 3.616z" fill="url(#paint11_linear_39_3384)"/><path d="M99.82 57.175l-.545-.895a3.816 3.816 0 00-4.161-2.82l-2.859.35a1.549 1.549 0 00-1.322 1.848c.272 1.283.953 2.8 2.703 2.683 2.994-.194 4.9 4.161 4.9 4.161l1.147-1.614a3.388 3.388 0 00.136-3.713z" fill="url(#paint12_linear_39_3384)"/><path d="M77.692 9.654c2.47-.37 5.25-2.45 5.192-4.161-.078-2.372-5.484-3.655-8.206-4.317-2.741-.66-3.888-.427-4.686.175-.797.603-1.322 1.692-1.497 2.645-.097.505-.097 1.225-.02 2.625.079 1.244.06 1.186.079 1.555.077.895.31 2.45 1.186 4.589.35-.389.836-.856 1.439-1.322.233-.175 1.147-.875 2.177-1.284 1.828-.719 2.839-.291 4.336-.505z" fill="url(#paint13_linear_39_3384)"/><path d="M68.456 10.354s.156 3.442 3.403 4.958c2.917 1.361 6.767-4.725 5.717-7.039-.35-.777-1.459-1.613-2.567-1.866-.661-.156-.992-.02-2.061-.292-.992-.253-1.186-.486-1.575-.408-.486.097-1.089.642-1.556 2.78-.233-.836-.777-1.4-1.341-1.438-.097 0-.35.019-.584.155-.797.525-.641 1.808.564 3.15z" fill="url(#paint14_linear_39_3384)"/><defs><linearGradient id="paint0_linear_39_3384" x1="113.732" y1="135.397" x2="59.356" y2="135.397" gradientUnits="userSpaceOnUse"><stop stop-color="#4499D9"/><stop offset=".996" stop-color="#6E6CC1"/></linearGradient><linearGradient id="paint1_linear_39_3384" x1="99.72" y1="229.374" x2="79.424" y2="229.374" gradientUnits="userSpaceOnUse"><stop stop-color="#311944"/><stop offset="1" stop-color="#6B3976"/></linearGradient><linearGradient id="paint2_linear_39_3384" x1="76.627" y1="193.808" x2="83.726" y2="238.252" gradientUnits="userSpaceOnUse"><stop stop-color="#311944"/><stop offset="1" stop-color="#A03976"/></linearGradient><linearGradient id="paint3_linear_39_3384" x1="113.732" y1="135.401" x2="59.356" y2="135.401" gradientUnits="userSpaceOnUse"><stop stop-color="#AA80F9"/><stop offset=".996" stop-color="#6165D7"/></linearGradient><linearGradient id="paint4_linear_39_3384" x1="74" y1="137" x2="51" y2="189" gradientUnits="userSpaceOnUse"><stop stop-color="#4499D9"/><stop offset=".996" stop-color="#6E6CC1"/></linearGradient><linearGradient id="paint5_linear_39_3384" x1="53.623" y1="2.371" x2="87.368" y2="122.533" gradientUnits="userSpaceOnUse"><stop stop-color="#FFC444"/><stop offset=".996" stop-color="#F36F56"/></linearGradient><linearGradient id="paint6_linear_39_3384" x1="107.757" y1="61.205" x2="101.893" y2="80.238" gradientUnits="userSpaceOnUse"><stop stop-color="#FFC444"/><stop offset=".996" stop-color="#F36F56"/></linearGradient><linearGradient id="paint7_linear_39_3384" x1="34.338" y1="7.786" x2="68.082" y2="127.949" gradientUnits="userSpaceOnUse"><stop stop-color="#FFC444"/><stop offset=".996" stop-color="#F36F56"/></linearGradient><linearGradient id="paint8_linear_39_3384" x1="12.685" y1="13.867" x2="46.43" y2="134.029" gradientUnits="userSpaceOnUse"><stop stop-color="#FFC444"/><stop offset=".996" stop-color="#F36F56"/></linearGradient><linearGradient id="paint9_linear_39_3384" x1="77.688" y1="50.109" x2="57.318" y2="86.837" gradientUnits="userSpaceOnUse"><stop offset=".494" stop-color="#EBEFF2"/><stop offset="1" stop-color="#fff"/></linearGradient><linearGradient id="paint10_linear_39_3384" x1="45.309" y1="89.17" x2="68.971" y2="63.759" gradientUnits="userSpaceOnUse"><stop offset=".494" stop-color="#EBEFF2"/><stop offset="1" stop-color="#fff"/></linearGradient><linearGradient id="paint11_linear_39_3384" x1="63.956" y1="-8.565" x2="67.865" y2="24.768" gradientUnits="userSpaceOnUse"><stop stop-color="#311944"/><stop offset="1" stop-color="#A03976"/></linearGradient><linearGradient id="paint12_linear_39_3384" x1="100.305" y1="57.972" x2="90.897" y2="57.972" gradientUnits="userSpaceOnUse"><stop stop-color="#311944"/><stop offset="1" stop-color="#A03976"/></linearGradient><linearGradient id="paint13_linear_39_3384" x1="59.441" y1="18.299" x2="78.578" y2="2.23" gradientUnits="userSpaceOnUse"><stop stop-color="#AA80F9"/><stop offset=".996" stop-color="#6165D7"/></linearGradient><linearGradient id="paint14_linear_39_3384" x1="67.49" y1="-4.06" x2="71.194" y2="5.199" gradientUnits="userSpaceOnUse"><stop stop-color="#311944"/><stop offset="1" stop-color="#A03976"/></linearGradient></defs></svg>
